svg/OSM-icons/military #555548 °ffffff !label=enmilitary,deMilitärisches/23005;military=danger_area;!label=endanger area,deGefahren- zone.svg

<svg xmlns="http://www.w3.org/2000/svg" viewBox="0 0 580 580" enable-background="new 0 0 580 580"><path fill="#111" stroke="#eee" stroke-width="3.408" d="m66.28 1.768c-41.34 0-64.57 21.371-64.57 65.04v450.12c0 40.844 20.894 62.23 62.19 62.23h452.02c41.31 0 62.23-20.316 62.23-62.23v-450.12c0-42.601-20.923-65.04-63.52-65.04-.003 0-448.49-.143-448.35 0z"/><path fill="#fff" d="m536.77 485.62c0-7.05-3.467-13.177-7.262-19.488l-219.24-393.28c-9.686-10.761-25.389-10.761-35.08.004l-224.84 395.49c-3.335 6.426-7.266 12.434-7.266 19.488l.032 2.947c0 15.223 11.919 24.427 25.617 24.427h442.68c13.701 0 25.499-11.41 25.499-26.633l-.146-2.961m-226.52-38.748c-5.729 5.093-12.414 7.639-20.05 7.639-7.767 0-14.547-2.515-20.342-7.544-5.792-5.03-8.689-12.06-8.689-21.1 0-7.894 2.77-14.61 8.309-20.15 5.538-5.539 12.319-8.308 20.34-8.308 8.02 0 14.866 2.769 20.532 8.308s8.499 12.256 8.499 20.15c0 8.912-2.866 15.915-8.596 21.01m7.258-211.81l-8.212 94.16c-.891 11.204-2.802 19.799-5.73 25.782-2.929 5.985-7.767 8.978-14.515 8.978-6.876 0-11.651-2.896-14.325-8.689-2.673-5.795-4.584-14.611-5.729-26.453l-6.112-91.48c-1.146-17.826-1.719-30.622-1.719-38.39 0-10.567 2.77-18.813 8.309-24.733 5.538-5.921 12.828-8.881 21.868-8.881 10.95 0 18.271 3.788 21.963 11.363 3.694 7.577 5.54 18.495 5.54 32.755 0 8.404-.446 16.935-1.338 25.593"/></svg>

<?xml version="1.0" encoding="utf-8"?>
<!-- Generator: Adobe Illustrator 15.0.0, SVG Export Plug-In . SVG Version: 6.00 Build 0)  -->
<!DOCTYPE svg PUBLIC "-//W3C//DTD SVG 1.1//EN" "http://www.w3.org/Graphics/SVG/1.1/DTD/svg11.dtd">
<svg version="1.1" xmlns="http://www.w3.org/2000/svg" xmlns:xlink="http://www.w3.org/1999/xlink" x="0px" y="0px" width="580px"
	 height="580px" viewBox="0 0 580 580" enable-background="new 0 0 580 580" xml:space="preserve">
<g id="Layer_2">
	<g id="g1327">
		<path id="path1329" fill="#111111" stroke="#EEEEEE" stroke-width="3.408" d="M66.275,1.768
			c-41.335,0-64.571,21.371-64.571,65.036v450.123c0,40.844,20.894,62.229,62.192,62.229H515.92
			c41.307,0,62.229-20.316,62.229-62.229V66.804c0-42.601-20.923-65.036-63.522-65.036C514.624,1.768,66.133,1.625,66.275,1.768z"/>
	</g>
</g>
<g id="svg2" inkscape:output_extension="org.inkscape.output.svg.inkscape" inkscape:version="0.46" sodipodi:docname="waste_bin.svg" sodipodi:version="0.32" xmlns:inkscape="http://www.inkscape.org/namespaces/inkscape" xmlns:rdf="http://www.w3.org/1999/02/22-rdf-syntax-ns#" xmlns:svg="http://www.w3.org/2000/svg" xmlns:sodipodi="http://sodipodi.sourceforge.net/DTD/sodipodi-0.dtd" xmlns:cc="http://creativecommons.org/ns#" xmlns:dc="http://purl.org/dc/elements/1.1/">
	<path fill="#FFFFFF" d="M536.769,485.62c0-7.052-3.467-13.177-7.262-19.488L310.269,72.856
		c-9.686-10.761-25.389-10.761-35.078,0.004L50.351,468.352c-3.335,6.426-7.266,12.434-7.266,19.488l0.032,2.947
		c0,15.223,11.919,24.427,25.617,24.427h442.682c13.701,0,25.499-11.41,25.499-26.633L536.769,485.62z M310.244,446.872
		c-5.729,5.093-12.414,7.639-20.053,7.639c-7.767,0-14.547-2.515-20.342-7.544c-5.792-5.029-8.689-12.065-8.689-21.104
		c0-7.894,2.77-14.61,8.309-20.149c5.538-5.539,12.319-8.308,20.34-8.308c8.021,0,14.866,2.769,20.532,8.308
		s8.499,12.256,8.499,20.149C318.84,434.775,315.974,441.778,310.244,446.872z M317.502,235.063l-8.212,94.158
		c-0.891,11.204-2.802,19.799-5.73,25.782c-2.929,5.985-7.767,8.978-14.515,8.978c-6.876,0-11.651-2.896-14.325-8.689
		c-2.673-5.795-4.584-14.611-5.729-26.453l-6.112-91.484c-1.146-17.826-1.719-30.622-1.719-38.389
		c0-10.567,2.77-18.813,8.309-24.733c5.538-5.921,12.828-8.881,21.868-8.881c10.95,0,18.271,3.788,21.963,11.363
		c3.694,7.577,5.54,18.495,5.54,32.755C318.84,217.874,318.394,226.405,317.502,235.063z"/>
</g>
</svg>
